common/app/assets/images/video/volume-mute-yellow.svg

<svg width="17" height="13" xmlns="http://www.w3.org/2000/svg"><path d="M7 0l-4 4h-2l-1 1v4l1 1 1.988-.012 4.012 3.012h1v-12.998l-1-.002m10 3.559l-.557-.559-2.943 2.62-2.942-2.62-.558.559 2.622 2.941-2.622 2.941.558.559 2.942-2.62 2.943 2.62.557-.559-2.619-2.941 2.619-2.941" fill="#fb0"/></svg>

<svg width="17" height="13" xmlns="http://www.w3.org/2000/svg"><path d="M7 0L3 4H1L0 5v4l1 1 1.988-.012L7 13h1V.002L7 0m10 3.56L16.443 3 13.5 5.62 10.558 3 10 3.56l2.622 2.94L10 9.44l.558.56L13.5 7.38 16.443 10 17 9.44 14.38 6.5 17 3.56" fill="#fb0"/></svg>
